svg/arrow_up_right_bold.svg

<svg xmlns="http://www.w3.org/2000/svg" viewBox="0 0 24 24"><path d="M3 21v-4h7.5c1.93 0 3.5-1.57 3.5-3.5V11h-4l6-7 6 7h-4v2.5c0 4.14-3.36 7.5-7.5 7.5z"/></svg>

<svg xmlns="http://www.w3.org/2000/svg" id="mdi-arrow-up-right-bold" viewBox="0 0 24 24"><path d="M3 21V17H10.5C12.43 17 14 15.43 14 13.5V11H10L16 4L22 11H18V13.5C18 17.64 14.64 21 10.5 21H3Z" /></svg>
